X: 021768
T: Brandy for Breakfast
S: B.Breathnach:"Ceol Rince na hEireann" IV/154 (gan ainm)
Z: B.Black
L: 1/8
M: 4/4
R: reel
K: F
Af f2 af f2|df (3cBA BGGB|Af f2 af f2|dfcB AF F2 :|
c2 Fc AFcF|Bd (3cBA BGGA|c2 Fc Acde|fcdB Acfd|
c2 Fc AFcF|Bd (3cBA BGGB|Af f2 afge|fdcB AF F2 ||
